libs/ui/packages/crypto-icons/src/svg/sABI.svg

<svg width="24" height="24" viewBox="0 0 24 24" fill="none">
<path d="M9.73023 3.03256H4.39147C6.44248 1.29059 9.0983 0.239972 12 0.239972C18.4949 0.239972 23.76 5.50513 23.76 12C23.76 18.4949 18.4949 23.7601 12 23.7601C9.41477 23.7601 7.02488 22.9262 5.0839 21.5125H9.73026C10.3147 21.5125 10.7884 21.0387 10.7884 20.4543C10.7884 19.8699 10.3147 19.3962 9.73026 19.3962H2.85637C2.43894 18.8808 2.06423 18.3294 1.7376 17.7475L13.3366 17.7474C13.921 17.7473 14.3948 17.2736 14.3948 16.6892C14.3948 16.1048 13.921 15.631 13.3366 15.631L0.811141 15.6312C0.627159 15.0639 0.485126 14.4776 0.388705 13.8761H4.09085C4.67525 13.8761 5.14901 13.4023 5.14901 12.8179C5.14901 12.2335 4.67525 11.7598 4.09085 11.7598H0.242316C0.258824 10.9357 0.360068 10.1326 0.537621 9.35883H13.3636C13.948 9.35883 14.4217 8.88508 14.4217 8.30068C14.4217 7.71628 13.948 7.24252 13.3636 7.24252H1.24191C1.57021 6.50126 1.97291 5.80022 2.44057 5.14887H9.73023C10.3146 5.14887 10.7884 4.67512 10.7884 4.09072C10.7884 3.50631 10.3146 3.03256 9.73023 3.03256ZM9.57811 12.8179C9.57811 13.4023 10.0519 13.8761 10.6363 13.8761H19.3636C19.948 13.8761 20.4217 13.4023 20.4217 12.8179C20.4217 12.2335 19.948 11.7598 19.3636 11.7598H10.6363C10.0519 11.7598 9.57811 12.2335 9.57811 12.8179ZM7.32739 11.7598C6.74277 11.7598 6.26844 12.2333 6.26844 12.8179C6.26844 13.4026 6.74277 13.8761 7.32739 13.8761C7.91201 13.8761 8.38634 13.4026 8.38634 12.8179C8.38634 12.2333 7.91201 11.7598 7.32739 11.7598ZM13.0273 3.03256C12.4426 3.03256 11.9683 3.50609 11.9683 4.09072C11.9683 4.67534 12.4426 5.14887 13.0273 5.14887C13.6119 5.14887 14.0862 4.67534 14.0862 4.09072C14.0862 3.50609 13.6119 3.03256 13.0273 3.03256ZM13.0273 19.3962C12.4426 19.3962 11.9683 19.8697 11.9683 20.4543C11.9683 21.0389 12.4426 21.5125 13.0273 21.5125C13.6119 21.5125 14.0862 21.0389 14.0862 20.4543C14.0862 19.8697 13.6119 19.3962 13.0273 19.3962Z" fill="white" stroke="black" stroke-width="0.479945"/>
</svg>

<svg width="24" height="24" viewBox="0 0 24 24" fill="none"><path fill="#fff" stroke="#000" stroke-width=".48" d="M9.73 3.033H4.391A11.7 11.7 0 0 1 12 .24C18.495.24 23.76 5.505 23.76 12S18.495 23.76 12 23.76c-2.585 0-4.975-.834-6.916-2.248H9.73a1.058 1.058 0 0 0 0-2.116H2.856a12 12 0 0 1-1.118-1.649h11.599a1.058 1.058 0 0 0 0-2.116H.81a12 12 0 0 1-.422-1.755H4.09a1.058 1.058 0 0 0 0-2.116H.242c.017-.824.118-1.627.296-2.401h12.826a1.058 1.058 0 0 0 0-2.116H1.242q.494-1.116 1.198-2.094h7.29a1.058 1.058 0 0 0 0-2.116Zm-.152 9.785c0 .584.474 1.058 1.058 1.058h8.728a1.058 1.058 0 0 0 0-2.116h-8.728c-.584 0-1.058.473-1.058 1.058Zm-2.25-1.058a1.059 1.059 0 1 0-.001 2.117 1.059 1.059 0 0 0 0-2.117Zm5.7-8.727a1.059 1.059 0 1 0-.002 2.117 1.059 1.059 0 0 0 .001-2.117Zm0 16.363a1.059 1.059 0 1 0-.002 2.117 1.059 1.059 0 0 0 .001-2.117Z"/></svg>
